packages/icons/svg/24/FormatColorFillNoColor.svg

<svg width="24" height="24" viewBox="0 0 24 24" fill="none" xmlns="http://www.w3.org/2000/svg">
<path fill-rule="evenodd" clip-rule="evenodd" d="M16.5601 8.93997L8.32006 0.699971C7.93006 0.309971 7.30006 0.309971 6.91006 0.699971C6.52006 1.08997 6.52006 1.71997 6.91006 2.10997L8.59006 3.78997L3.44006 8.93997C2.85006 9.52997 2.85006 10.48 3.44006 11.06L8.94006 16.56C9.23006 16.85 9.62006 17 10.0001 17C10.3801 17 10.7701 16.85 11.0601 16.56L16.5601 11.06C17.1501 10.48 17.1501 9.52997 16.5601 8.93997ZM5.21006 9.99997L10.0001 5.20997L14.7901 9.99997H5.21006ZM19.0001 11.5C19.0001 11.5 17.0001 13.67 17.0001 15C17.0001 16.1 17.9001 17 19.0001 17C20.1001 17 21.0001 16.1 21.0001 15C21.0001 13.67 19.0001 11.5 19.0001 11.5Z" fill="#858585"/>
</svg>

<svg width="24" height="24" fill="none" xmlns="http://www.w3.org/2000/svg" viewBox="0 0 24 24"><path fill-rule="evenodd" clip-rule="evenodd" d="M16.56 8.94L8.32.7a.996.996 0 10-1.41 1.41l1.68 1.68-5.15 5.15a1.49 1.49 0 000 2.12l5.5 5.5c.29.29.68.44 1.06.44s.77-.15 1.06-.44l5.5-5.5c.59-.58.59-1.53 0-2.12zM5.21 10L10 5.21 14.79 10H5.21zM19 11.5s-2 2.17-2 3.5c0 1.1.9 2 2 2s2-.9 2-2c0-1.33-2-3.5-2-3.5z" fill="currentColor"></path></svg>
